src/scalable/apps/software-store.svg

<?xml version="1.0" encoding="UTF-8"?>
<svg width="64" height="64" version="1.1" viewBox="0 0 16.933 16.933" xmlns="http://www.w3.org/2000/svg" xmlns:cc="http://creativecommons.org/ns#" xmlns:dc="http://purl.org/dc/elements/1.1/" xmlns:rdf="http://www.w3.org/1999/02/22-rdf-syntax-ns#">
 <defs>
  <linearGradient id="linearGradient856" x1="-73.361" x2="-58.736" y1="6.9799" y2="17.198" gradientTransform="translate(75.14 -.76955)" gradientUnits="userSpaceOnUse">
   <stop stop-color="#fafafa" offset="0"/>
   <stop stop-color="#e6e6e6" offset="1"/>
  </linearGradient>
  <linearGradient id="linearGradient874" x1="-74.611" x2="-58.736" y1="5.5561" y2="5.5561" gradientTransform="translate(75.14 -1.901)" gradientUnits="userSpaceOnUse">
   <stop stop-color="#cfcfcf" offset="0"/>
   <stop stop-color="#c9c9c9" offset="1"/>
  </linearGradient>
  <linearGradient id="linearGradient908" x1="-70.642" x2="-70.642" y2="2.6738" gradientTransform="translate(75.14 -.13229)" gradientUnits="userSpaceOnUse">
   <stop stop-color="#ebebeb" offset="0"/>
   <stop stop-color="#fafafa" offset="1"/>
  </linearGradient>
  <linearGradient id="linearGradient922" x1="-62.705" x2="-62.705" y2="3.8515" gradientTransform="translate(75.14 -.13229)" gradientUnits="userSpaceOnUse">
   <stop stop-color="#ebebeb" offset="0"/>
   <stop stop-color="#fafafa" offset="1"/>
  </linearGradient>
  <filter id="filter954" x="-.18" y="-.18" width="1.36" height="1.36" color-interpolation-filters="sRGB">
   <feGaussianBlur stdDeviation="0.11906016"/>
  </filter>
  <filter id="filter962" x="-.18" y="-.18" width="1.36" height="1.36" color-interpolation-filters="sRGB">
   <feGaussianBlur stdDeviation="0.11906016"/>
  </filter>
 </defs>
 <metadata>
  <rdf:RDF>
   <cc:Work rdf:about="">
    <dc:format>image/svg+xml</dc:format>
    <dc:type rdf:resource="http://purl.org/dc/dcmitype/StillImage"/>
    <dc:title/>
   </cc:Work>
  </rdf:RDF>
 </metadata>
 <rect x=".52916" y="3.6551" width="15.875" height="11.641" ry=".52916" fill="url(#linearGradient874)"/>
 <rect x="3.7041" y="3.7283" width="1.5875" height="1.5875" ry="0" filter="url(#filter954)" opacity=".5"/>
 <rect x="11.641" y="3.7283" width="1.5875" height="1.5875" ry="0" filter="url(#filter962)" opacity=".5"/>
 <path d="m3.7041 3.1991v1.5875h-2.6458c-0.29315 0-0.52916 0.236-0.52916 0.52916v10.583c0 0.29315 0.236 0.52916 0.52916 0.52916h14.816c0.29315 0 0.52916-0.236 0.52916-0.52916v-10.583c0-0.29315-0.236-0.52916-0.52916-0.52916h-2.6458v-1.5875h-1.5875v1.5875h-6.3499v-1.5875z" fill="url(#linearGradient856)"/>
 <g transform="translate(0 .63725)">
  <path d="m5.2916 2.5619v-2.6942l-1.5875 1.3229v1.3713z" fill="url(#linearGradient908)"/>
  <path d="m11.641 2.5619v-2.6942l1.5875 1.3229v1.3713z" fill="url(#linearGradient922)"/>
  <rect x="5.2916" y="-.13229" width="6.3499" height="1.5875" ry="0" fill="#c8c8c8"/>
 </g>
 <g transform="translate(.052353 .07972)">
  <path d="m9.699 7.3656-0.82165 0.82165 1.6433 1.6433-1.6433 1.6433 0.82165 0.82165 2.465-2.465-0.82165-0.82165z" fill="#81b901" stroke-width=".23761"/>
  <circle cx="6.8535" cy="7.8036" r=".47517" fill="#f44e24" stroke-width=".79373"/>
  <circle cx="5.5188" cy="10.624" r=".85446" fill="#00a2ef" stroke-width="1.4273"/>
  <circle cx="7.6548" cy="13.516" r="1.2599" fill="#ffb800" stroke-width="2.1046"/>
 </g>
</svg>

<?xml version="1.0" encoding="UTF-8" standalone="no"?>
<svg
   xmlns:dc="http://purl.org/dc/elements/1.1/"
   xmlns:cc="http://creativecommons.org/ns#"
   xmlns:rdf="http://www.w3.org/1999/02/22-rdf-syntax-ns#"
   xmlns:svg="http://www.w3.org/2000/svg"
   xmlns="http://www.w3.org/2000/svg"
   xmlns:sodipodi="http://sodipodi.sourceforge.net/DTD/sodipodi-0.dtd"
   xmlns:inkscape="http://www.inkscape.org/namespaces/inkscape"
   inkscape:version="1.0 (4035a4fb49, 2020-05-01)"
   sodipodi:docname="software-store.svg"
   id="svg58"
   viewBox="0 0 16.933 16.933"
   version="1.1"
   height="64"
   width="64">
  <sodipodi:namedview
     inkscape:current-layer="svg58"
     inkscape:window-maximized="1"
     inkscape:window-y="36"
     inkscape:window-x="0"
     inkscape:cy="25.667551"
     inkscape:cx="61.10313"
     inkscape:zoom="5.9609375"
     showgrid="false"
     id="namedview60"
     inkscape:window-height="932"
     inkscape:window-width="1920"
     inkscape:pageshadow="2"
     inkscape:pageopacity="0"
     guidetolerance="10"
     gridtolerance="10"
     objecttolerance="10"
     borderopacity="1"
     bordercolor="#666666"
     pagecolor="#ffffff" />
  <defs
     id="defs28">
    <linearGradient
       gradientUnits="userSpaceOnUse"
       gradientTransform="translate(75.14,-0.76955)"
       y2="17.198"
       y1="6.9799"
       x2="-58.736"
       x1="-73.361"
       id="linearGradient856">
      <stop
         id="stop2"
         offset="0"
         stop-color="#fafafa" />
      <stop
         id="stop4"
         offset="1"
         stop-color="#e6e6e6" />
    </linearGradient>
    <linearGradient
       gradientUnits="userSpaceOnUse"
       gradientTransform="translate(75.14,-1.901)"
       y2="5.5561"
       y1="5.5561"
       x2="-58.736"
       x1="-74.611"
       id="linearGradient874">
      <stop
         id="stop7"
         offset="0"
         stop-color="#cfcfcf" />
      <stop
         id="stop9"
         offset="1"
         stop-color="#c9c9c9" />
    </linearGradient>
    <linearGradient
       gradientUnits="userSpaceOnUse"
       gradientTransform="translate(75.14,-0.13229)"
       y2="2.6738"
       x2="-70.642"
       x1="-70.642"
       id="linearGradient908">
      <stop
         id="stop12"
         offset="0"
         stop-color="#ebebeb" />
      <stop
         id="stop14"
         offset="1"
         stop-color="#fafafa" />
    </linearGradient>
    <linearGradient
       gradientUnits="userSpaceOnUse"
       gradientTransform="translate(75.14,-0.13229)"
       y2="3.8515"
       x2="-62.705"
       x1="-62.705"
       id="linearGradient922">
      <stop
         id="stop17"
         offset="0"
         stop-color="#ebebeb" />
      <stop
         id="stop19"
         offset="1"
         stop-color="#fafafa" />
    </linearGradient>
    <filter
       color-interpolation-filters="sRGB"
       height="1.36"
       width="1.36"
       y="-.18"
       x="-.18"
       id="filter954">
      <feGaussianBlur
         id="feGaussianBlur22"
         stdDeviation="0.11906016" />
    </filter>
    <filter
       color-interpolation-filters="sRGB"
       height="1.36"
       width="1.36"
       y="-.18"
       x="-.18"
       id="filter962">
      <feGaussianBlur
         id="feGaussianBlur25"
         stdDeviation="0.11906016" />
    </filter>
  </defs>
  <metadata
     id="metadata30">
    <rdf:RDF>
      <cc:Work
         rdf:about="">
        <dc:format>image/svg+xml</dc:format>
        <dc:type
           rdf:resource="http://purl.org/dc/dcmitype/StillImage" />
        <dc:title></dc:title>
      </cc:Work>
    </rdf:RDF>
  </metadata>
  <g
     transform="matrix(0.91664747,0,0,0.91664747,0.70556669,0.70576378)"
     id="g898">
    <rect
       style="fill:url(#linearGradient874)"
       x="0.52916002"
       y="3.6551001"
       width="15.875"
       height="11.641"
       ry="0.52916002"
       fill="url(#linearGradient874)"
       id="rect32" />
    <rect
       x="3.7040999"
       y="3.7283001"
       width="1.5875"
       height="1.5875"
       ry="0"
       filter="url(#filter954)"
       opacity="0.5"
       id="rect34" />
    <rect
       x="11.641"
       y="3.7283001"
       width="1.5875"
       height="1.5875"
       ry="0"
       filter="url(#filter962)"
       opacity="0.5"
       id="rect36" />
    <path
       style="fill:url(#linearGradient856)"
       d="M 3.7041,3.1991 V 4.7866 H 1.0583 c -0.29315,0 -0.52916,0.236 -0.52916,0.52916 v 10.583 c 0,0.29315 0.236,0.52916 0.52916,0.52916 h 14.816 c 0.29315,0 0.52916,-0.236 0.52916,-0.52916 v -10.583 c 0,-0.29315 -0.236,-0.52916 -0.52916,-0.52916 H 13.2285 V 3.1991 H 11.641 V 4.7866 H 5.2911 V 3.1991 Z"
       fill="url(#linearGradient856)"
       id="path38" />
    <g
       transform="translate(0,0.63725)"
       id="g46">
      <path
         style="fill:url(#linearGradient908)"
         d="M 5.2916,2.5619 V -0.1323 L 3.7041,1.1906 v 1.3713 z"
         fill="url(#linearGradient908)"
         id="path40" />
      <path
         style="fill:url(#linearGradient922)"
         d="m 11.641,2.5619 v -2.6942 l 1.5875,1.3229 v 1.3713 z"
         fill="url(#linearGradient922)"
         id="path42" />
      <rect
         x="5.2916002"
         y="-0.13229001"
         width="6.3498998"
         height="1.5875"
         ry="0"
         fill="#c8c8c8"
         id="rect44" />
    </g>
    <g
       transform="translate(0.052353,0.07972)"
       id="g56">
      <path
         d="m 9.699,7.3656 -0.82165,0.82165 1.6433,1.6433 -1.6433,1.6433 0.82165,0.82165 2.465,-2.465 -0.82165,-0.82165 z"
         fill="#81b901"
         stroke-width="0.23761"
         id="path48" />
      <circle
         cx="6.8534999"
         cy="7.8035998"
         r="0.47516999"
         fill="#f44e24"
         stroke-width="0.79373"
         id="circle50" />
      <circle
         cx="5.5187998"
         cy="10.624"
         r="0.85446"
         fill="#00a2ef"
         stroke-width="1.4273"
         id="circle52" />
      <circle
         cx="7.6547999"
         cy="13.516"
         r="1.2599"
         fill="#ffb800"
         stroke-width="2.1046"
         id="circle54" />
    </g>
  </g>
</svg>
